src/status/16/renamed-qbittorrent.svg

<svg height="16" width="16" viewBox="0 0 4.5155556 4.5155556" xmlns="http://www.w3.org/2000/svg">
 <path d="M 3.5 4 A 3.5 3.5 0 0 0 0 7.5 A 3.5 3.5 0 0 0 3.5 11 A 3.5 3.5 0 0 0 6 9.949219 L 6 13.5 C 6 13.777 6.223 14 6.5 14 C 6.777 14 7 13.777 7 13.5 L 7 7.5 L 7 5.5 C 7 5.223 6.777 5 6.5 5 C 6.344 5 6.211 5.076 6.119 5.188 A 3.5 3.5 0 0 0 5 4.341797 L 5 7 L 6 7 L 4.5 9 L 3 7 L 4 7 L 4 4.04 A 3.5 3.5 0 0 0 3.5 4 z" style="fill:#2e3440;opacity:1;fill-opacity:1;stroke:none;fill-rule:nonzero" transform="matrix(0.28222 0 0 0.28222 0 0)"/>
 <path d="M 3.527778 3.386667 A 0.987778 0.987778 0 0 0 4.515556 2.398889 0.987778 0.987778 0 0 0 3.527778 1.411111 0.987778 0.987778 0 0 0 2.822222 1.707665 L 2.822 0.706 c 0 -0.078 -0.063 -0.141 -0.141 -0.141 -0.078 0 -0.141 0.063 -0.141 0.141 L 2.54 2.399 2.54 2.963 c 0 0.078 0.063 0.141 0.141 0.141 0.044 0 0.082 -0.021 0.107 -0.053 A 0.987778 0.987778 0 0 0 3.104445 3.290204 L 3.104 2.54 L 2.822 2.54 L 3.246 1.976 3.669 2.54 L 3.387 2.54 l 0 0.835 a 0.987778 0.987778 0 0 0 0.141111 0.011575 z" style="fill:#2e3440;opacity:1;fill-opacity:1;stroke:none;fill-rule:nonzero"/>
</svg>

<svg width="16" height="16" viewBox="0 0 4.5156 4.5156" xmlns="http://www.w3.org/2000/svg">
 <path transform="scale(.28222)" d="m3.5 4a3.5 3.5 0 0 0-3.5 3.5 3.5 3.5 0 0 0 3.5 3.5 3.5 3.5 0 0 0 2.5-1.0508v3.5508c0 0.277 0.223 0.5 0.5 0.5s0.5-0.223 0.5-0.5v-6-2c0-0.277-0.223-0.5-0.5-0.5-0.156 0-0.289 0.076-0.381 0.188a3.5 3.5 0 0 0-1.119-0.8462v2.6582h1l-1.5 2-1.5-2h1v-2.96a3.5 3.5 0 0 0-0.5-0.04z" fill="#2e3440"/>
 <path d="m3.5278 3.3867a0.98778 0.98778 0 0 0 0.98778-0.98778 0.98778 0.98778 0 0 0-0.98778-0.98778 0.98778 0.98778 0 0 0-0.70556 0.29655l-2.22e-4 -1.0017c0-0.078-0.063-0.141-0.141-0.141s-0.141 0.063-0.141 0.141v1.693 0.564c0 0.078 0.063 0.141 0.141 0.141 0.044 0 0.082-0.021 0.107-0.053a0.98778 0.98778 0 0 0 0.31644 0.2392l-4.45e-4 -0.7502h-0.282l0.424-0.564 0.423 0.564h-0.282v0.835a0.98778 0.98778 0 0 0 0.14111 0.011575z" fill="#2e3440"/>
</svg>
